epam-assets/icon-sources/18/internal-logo/planner_DC.svg

<svg width="18" height="18" viewBox="0 0 18 18" fill="none" xmlns="http://www.w3.org/2000/svg">
<g id="18/internal-logo/planner_DC">
<g id="icon">
<path d="M2.43753 12.4898C2.43753 12.1348 2.73134 11.8469 3.09378 11.8469H8.34378C8.70622 11.8469 9.00003 12.1348 9.00003 12.4898V12.8571C9.00003 13.2122 8.70622 13.5 8.34378 13.5H3.09378C2.73134 13.5 2.43753 13.2122 2.43753 12.8571V12.4898Z" fill="#6C6F80"/>
<path d="M9.93752 12.4898C9.93752 12.1348 10.2313 11.8469 10.5938 11.8469H13.9688C14.3312 11.8469 14.625 12.1348 14.625 12.4898V12.8571C14.625 13.2122 14.3312 13.5 13.9688 13.5H10.5938C10.2313 13.5 9.93752 13.2122 9.93752 12.8571V12.4898Z" fill="#6C6F80"/>
<path d="M4.3125 8.81635C4.3125 8.46131 4.60631 8.17349 4.96875 8.17349H15.8438C16.2062 8.17349 16.5 8.46131 16.5 8.81635V9.18369C16.5 9.53873 16.2062 9.82655 15.8438 9.82655H4.96875C4.60631 9.82655 4.3125 9.53873 4.3125 9.18369V8.81635Z" fill="#6C6F80"/>
<path d="M1.5 5.14286C1.5 4.78782 1.79381 4.5 2.15625 4.5H4.59375C4.95619 4.5 5.25 4.78782 5.25 5.14286V5.5102C5.25 5.86524 4.95619 6.15306 4.59375 6.15306H2.15625C1.79381 6.15306 1.5 5.86524 1.5 5.5102V5.14286Z" fill="#6C6F80"/>
<path d="M6.18751 5.14286C6.18751 4.78782 6.48133 4.5 6.84376 4.5H12.0938C12.4562 4.5 12.75 4.78782 12.75 5.14286V5.5102C12.75 5.86524 12.4562 6.15306 12.0938 6.15306H6.84376C6.48133 6.15306 6.18751 5.86524 6.18751 5.5102V5.14286Z" fill="#6C6F80"/>
</g>
</g>
</svg>

<svg xmlns="http://www.w3.org/2000/svg" width="18" height="18" fill="none" viewBox="0 0 18 18">
  <path fill="#6C6F80" d="M2.438 12.49a.65.65 0 0 1 .656-.643h5.25A.65.65 0 0 1 9 12.49v.367a.65.65 0 0 1-.656.643h-5.25a.65.65 0 0 1-.656-.643v-.367Zm7.5 0a.65.65 0 0 1 .656-.643h3.375a.65.65 0 0 1 .656.643v.367a.65.65 0 0 1-.656.643h-3.375a.65.65 0 0 1-.656-.643v-.367ZM4.313 8.816a.65.65 0 0 1 .656-.643h10.875a.65.65 0 0 1 .656.643v.368a.65.65 0 0 1-.656.643H4.969a.65.65 0 0 1-.657-.643v-.368ZM1.5 5.143a.65.65 0 0 1 .656-.643h2.438a.65.65 0 0 1 .656.643v.367a.65.65 0 0 1-.656.643H2.156A.65.65 0 0 1 1.5 5.51v-.367Zm4.688 0a.65.65 0 0 1 .656-.643h5.25a.65.65 0 0 1 .656.643v.367a.65.65 0 0 1-.656.643h-5.25a.65.65 0 0 1-.656-.643v-.367Z"/>
</svg>
